X: 1
T: Peata Geal Mo Mhathair
M: 2/4
L: 1/8
R: polka
K: Dmaj
d e/d/ cA|BG GB|AB c/B/A|df af|
d e/d/ cA|BG GB|AB c/B/A|1 df da:|2 d2 de||
fd d>e|fg af|ge e>f|gb ag|
fd d>e|fg af|gb af|1 dA de:|2 d2 d2||
